public/logos/EY.svg

<?xml version="1.0" encoding="UTF-8"?>
<svg xmlns="http://www.w3.org/2000/svg" xmlns:xlink="http://www.w3.org/1999/xlink" width="119.63pt" height="59pt" viewBox="0 0 119.63 59" version="1.1">
<defs>
<clipPath id="clip1">
  <path d="M 94 26 L 119.628906 26 L 119.628906 42 L 94 42 Z M 94 26 "/>
</clipPath>
</defs>
<g id="surface1">
<path style=" stroke:none;fill-rule:nonzero;fill:rgb(68.70575%,51.997375%,13.4552%);fill-opacity:1;" d="M 35.914062 50.140625 L 37.023438 50.140625 L 40.421875 58.796875 L 38.664062 58.796875 L 37.976562 57 L 35.722656 57 L 35.238281 55.765625 L 37.519531 55.765625 L 36.613281 53.386719 L 36.371094 52.636719 L 36.132812 53.386719 L 34.09375 58.796875 L 32.476562 58.796875 L 35.914062 50.140625 "/>
<path style=" stroke:none;fill-rule:nonzero;fill:rgb(68.70575%,51.997375%,13.4552%);fill-opacity:1;" d="M 42.070312 50.140625 L 43.75 50.140625 L 43.75 58.796875 L 42.070312 58.796875 L 42.070312 50.140625 "/>
<path style=" stroke:none;fill-rule:nonzero;fill:rgb(68.70575%,51.997375%,13.4552%);fill-opacity:1;" d="M 48.929688 55.957031 L 47.976562 55.957031 L 47.976562 58.796875 L 46.296875 58.796875 L 46.296875 50.140625 L 49.070312 50.140625 C 51.082031 50.140625 52.203125 51.042969 52.203125 52.902344 C 52.203125 54.238281 51.578125 55.28125 50.445312 55.730469 L 52.800781 58.796875 L 50.914062 58.796875 Z M 49.070312 54.773438 C 50.140625 54.773438 50.496094 54.074219 50.496094 53.066406 C 50.496094 52.085938 50.140625 51.476562 49.058594 51.476562 L 47.976562 51.476562 L 47.976562 54.773438 L 49.070312 54.773438 "/>
<path style=" stroke:none;fill-rule:nonzero;fill:rgb(68.70575%,51.997375%,13.4552%);fill-opacity:1;" d="M 53.75 50.140625 L 55.492188 50.140625 L 57.085938 56.300781 L 57.152344 56.300781 L 58.691406 51.511719 L 58.242188 50.140625 L 59.898438 50.140625 L 61.898438 56.300781 L 61.949219 56.300781 L 63.554688 50.140625 L 65.207031 50.140625 L 62.585938 58.796875 L 61.171875 58.796875 L 59.425781 53.4375 L 57.671875 58.796875 L 56.308594 58.796875 L 53.75 50.140625 "/>
<path style=" stroke:none;fill-rule:nonzero;fill:rgb(68.70575%,51.997375%,13.4552%);fill-opacity:1;" d="M 68.792969 50.140625 L 69.898438 50.140625 L 73.296875 58.796875 L 71.539062 58.796875 L 70.851562 57 L 68.601562 57 L 68.117188 55.765625 L 70.394531 55.765625 L 69.492188 53.386719 L 69.25 52.636719 L 69.007812 53.386719 L 66.972656 58.796875 L 65.351562 58.796875 L 68.792969 50.140625 "/>
<path style=" stroke:none;fill-rule:nonzero;fill:rgb(68.70575%,51.997375%,13.4552%);fill-opacity:1;" d="M 76.003906 55.242188 L 73.179688 50.140625 L 75.039062 50.140625 L 76.921875 53.78125 L 78.855469 50.140625 L 80.523438 50.140625 L 77.683594 55.242188 L 77.683594 58.796875 L 76.003906 58.796875 L 76.003906 55.242188 "/>
<path style=" stroke:none;fill-rule:nonzero;fill:rgb(68.70575%,51.997375%,13.4552%);fill-opacity:1;" d="M 81.703125 58.425781 L 81.703125 56.671875 C 82.097656 57.027344 82.9375 57.5625 83.957031 57.5625 C 85.078125 57.5625 85.523438 57.128906 85.523438 56.351562 C 85.523438 55.714844 85.140625 55.421875 84.121094 55.179688 L 83.804688 55.105469 C 82.390625 54.761719 81.613281 53.984375 81.613281 52.621094 C 81.613281 50.957031 82.683594 49.9375 84.695312 49.9375 C 85.90625 49.9375 86.617188 50.292969 86.910156 50.496094 L 86.910156 52.253906 C 86.527344 51.910156 85.664062 51.386719 84.632812 51.386719 C 83.640625 51.386719 83.230469 51.71875 83.230469 52.429688 C 83.230469 53.054688 83.5 53.347656 84.566406 53.601562 L 84.886719 53.679688 C 86.414062 54.046875 87.152344 54.722656 87.152344 56.125 C 87.152344 57.816406 86.136719 59 83.90625 59 C 82.695312 59 81.996094 58.632812 81.703125 58.425781 "/>
<path style=" stroke:none;fill-rule:nonzero;fill:rgb(68.70575%,51.997375%,13.4552%);fill-opacity:1;" d="M 67.058594 3.75 L 66.910156 3.625 L 65.445312 2.15625 L 63.851562 3.753906 L 65.445312 5.363281 L 67.058594 3.75 "/>
<path style=" stroke:none;fill-rule:nonzero;fill:rgb(68.70575%,51.997375%,13.4552%);fill-opacity:1;" d="M 70.261719 3.75 L 70.121094 3.625 L 68.660156 2.15625 L 67.0625 3.757812 L 68.660156 5.367188 L 70.261719 3.75 "/>
<path style=" stroke:none;fill-rule:nonzero;fill:rgb(68.70575%,51.997375%,13.4552%);fill-opacity:1;" d="M 48.476562 3.433594 C 48.523438 3.785156 48.769531 3.914062 49.011719 4.039062 C 49.300781 4.1875 49.640625 4.332031 49.640625 4.847656 L 49.640625 17.054688 L 63.207031 17.054688 L 63.207031 17.308594 C 63.1875 17.367188 63.1875 17.46875 63.1875 17.636719 C 63.1875 18.609375 63.527344 19.273438 64.136719 19.523438 C 64.148438 19.523438 64.449219 19.699219 64.890625 19.699219 C 65.214844 19.699219 65.546875 19.597656 65.855469 19.390625 L 66.089844 19.253906 L 65.867188 19.074219 C 65.472656 18.777344 65.335938 17.894531 65.34375 17.222656 L 65.34375 17.054688 L 70.40625 17.054688 L 70.40625 5.839844 C 70.40625 5.839844 69.722656 7.335938 67.289062 9.101562 C 67.289062 9.101562 67.382812 9.582031 67.796875 9.8125 C 68.429688 10.164062 68.382812 10.492188 68.382812 10.492188 L 68.382812 15 L 65.367188 15 L 65.367188 14.546875 C 65.355469 13.40625 65.007812 10.761719 61.964844 10.761719 L 61.8125 10.769531 C 60.871094 10.796875 60.050781 10.816406 59.335938 10.816406 L 59.160156 10.816406 C 57.363281 10.816406 56.410156 10.621094 56.179688 10.1875 L 56.078125 10 L 55.910156 10.117188 C 55.578125 10.332031 55.382812 10.734375 55.382812 11.226562 C 55.394531 11.953125 55.789062 12.753906 56.519531 12.808594 C 56.964844 12.828125 57.621094 12.839844 58.285156 12.839844 C 59.457031 12.839844 60.625 12.820312 60.625 12.820312 C 63.144531 12.839844 63.179688 13.902344 63.207031 14.410156 L 63.207031 15 L 51.691406 15 L 51.691406 0.078125 C 51.691406 0.078125 50.335938 1.875 48.46875 3.246094 L 48.46875 3.320312 L 48.476562 3.433594 "/>
<path style=" stroke:none;fill-rule:nonzero;fill:rgb(68.70575%,51.997375%,13.4552%);fill-opacity:1;" d="M 40.660156 18.761719 C 40.660156 18.761719 40.429688 20.546875 44.160156 20.546875 C 47.203125 20.546875 47.304688 18.65625 47.304688 18.640625 L 47.3125 11.628906 C 47.3125 11.226562 47.199219 9.925781 45.960938 9.90625 L 35.371094 9.90625 L 35.371094 9.148438 C 35.371094 8.972656 35.53125 8.90625 35.65625 8.832031 C 36.273438 8.449219 36.378906 8.109375 36.179688 7.980469 C 34.929688 7.265625 33.703125 5.726562 33.703125 5.726562 L 33.703125 11.847656 L 44.308594 11.847656 L 44.410156 11.84375 C 44.75 11.847656 45.183594 11.9375 45.195312 12.617188 L 45.195312 17.515625 C 45.195312 17.550781 45.179688 18.574219 44.132812 18.574219 C 42.457031 18.574219 42.570312 17.71875 42.570312 17.71875 L 42.5625 14.96875 L 33.703125 14.96875 L 33.703125 17.058594 L 40.660156 17.058594 L 40.660156 18.761719 "/>
<path style=" stroke:none;fill-rule:nonzero;fill:rgb(68.70575%,51.997375%,13.4552%);fill-opacity:1;" d="M 84.804688 4.753906 C 84.828125 4.234375 85.101562 4.089844 85.382812 3.9375 C 85.632812 3.8125 85.878906 3.679688 85.921875 3.320312 L 85.929688 3.152344 C 85.929688 2.953125 85.785156 2.890625 85.597656 2.808594 C 85.414062 2.722656 85.0625 2.507812 84.414062 1.957031 C 83.332031 1.019531 83.0625 0.585938 83.0625 0.585938 L 82.691406 0 L 82.691406 17.058594 L 84.804688 17.058594 C 84.804688 17.058594 84.773438 5.136719 84.804688 4.753906 "/>
<path style=" stroke:none;fill-rule:nonzero;fill:rgb(68.70575%,51.997375%,13.4552%);fill-opacity:1;" d="M 72.738281 19.261719 L 76.207031 22.734375 L 79.664062 19.261719 L 77.515625 17.113281 L 80.101562 14.378906 L 80.101562 0.0078125 C 80.101562 0.0078125 79.140625 2.199219 77.449219 3.292969 L 77.449219 3.414062 C 77.484375 3.742188 77.683594 3.871094 77.878906 3.996094 C 78.109375 4.152344 78.328125 4.289062 78.347656 4.820312 C 78.371094 5.222656 78.347656 13.484375 78.347656 13.484375 L 76.207031 15.714844 L 74.054688 13.484375 C 74.054688 13.351562 74.027344 5.199219 74.054688 4.820312 C 74.078125 4.289062 74.296875 4.144531 74.527344 3.996094 C 74.707031 3.871094 74.914062 3.742188 74.949219 3.402344 L 74.953125 3.242188 C 73.421875 2.160156 72.292969 0.0078125 72.292969 0.0078125 L 72.292969 14.574219 L 74.878906 17.117188 Z M 77.636719 19.261719 L 76.207031 20.710938 L 74.757812 19.261719 L 76.207031 17.820312 L 77.636719 19.261719 "/>
<path style=" stroke:none;fill-rule:nonzero;fill:rgb(68.70575%,51.997375%,13.4552%);fill-opacity:1;" d="M 66.621094 26.808594 L 67.132812 27.128906 C 67.273438 27.21875 67.289062 27.277344 67.289062 27.328125 L 67.289062 31.78125 L 57.472656 31.78125 L 55.257812 34.59375 L 55.257812 27.347656 L 55.273438 27.207031 L 55.386719 27.128906 L 55.847656 26.839844 L 55.898438 26.8125 L 55.898438 26.367188 L 50.996094 26.367188 L 50.996094 26.808594 L 51.484375 27.121094 L 51.589844 27.195312 L 51.601562 27.195312 L 51.601562 40.507812 L 51.578125 40.6875 L 51.484375 40.773438 L 50.996094 41.101562 L 50.996094 41.53125 L 55.898438 41.53125 L 55.898438 41.089844 L 55.386719 40.769531 L 55.273438 40.699219 L 55.257812 40.707031 L 55.257812 34.59375 L 55.78125 34.753906 L 56.464844 34.363281 L 56.769531 34.21875 C 56.8125 34.207031 56.890625 34.1875 57.046875 34.1875 L 67.269531 34.1875 L 67.269531 38.871094 L 70.925781 34.953125 L 70.925781 27.195312 L 70.996094 27.082031 L 71.53125 26.816406 L 71.53125 26.367188 L 66.621094 26.367188 L 66.621094 26.808594 "/>
<g clip-path="url(#clip1)" clip-rule="nonzero">
<path style=" stroke:none;fill-rule:nonzero;fill:rgb(68.70575%,51.997375%,13.4552%);fill-opacity:1;" d="M 119.355469 32.296875 C 118.785156 30.480469 117.46875 28.992188 115.445312 27.863281 C 113.621094 26.84375 111.042969 26.347656 107.554688 26.347656 L 94.226562 26.347656 L 94.226562 26.785156 L 94.800781 27.15625 L 94.804688 27.15625 L 94.804688 28.734375 L 107.53125 28.734375 C 110.105469 28.734375 111.980469 29.078125 113.132812 29.746094 C 114.949219 30.804688 115.839844 32.1875 115.839844 33.957031 C 115.839844 34.84375 115.597656 35.65625 115.132812 36.378906 C 114.664062 37.085938 113.949219 37.699219 113.003906 38.179688 C 111.785156 38.820312 109.898438 39.140625 107.425781 39.140625 L 100.789062 39.140625 L 100.789062 29.820312 L 97.15625 29.820312 L 97.164062 40.523438 L 97.140625 40.679688 L 97.042969 40.78125 L 96.59375 41.058594 L 96.558594 41.089844 L 96.558594 41.527344 L 107.4375 41.527344 C 109.53125 41.527344 111.175781 41.40625 112.332031 41.167969 C 113.910156 40.839844 115.316406 40.265625 116.496094 39.460938 C 117.707031 38.648438 118.578125 37.710938 119.066406 36.660156 C 119.445312 35.898438 119.628906 35.050781 119.628906 34.152344 C 119.628906 33.511719 119.539062 32.886719 119.355469 32.296875 "/>
</g>
<path style=" stroke:none;fill-rule:nonzero;fill:rgb(68.70575%,51.997375%,13.4552%);fill-opacity:1;" d="M 78.335938 29.144531 L 66.511719 41.492188 L 71.957031 41.492188 L 71.957031 40.976562 L 71.773438 40.976562 L 71.511719 40.953125 L 71.3125 40.894531 L 80.445312 31.390625 L 78.335938 29.144531 "/>
<path style=" stroke:none;fill-rule:nonzero;fill:rgb(68.70575%,51.997375%,13.4552%);fill-opacity:1;" d="M 90.402344 41.027344 L 90.402344 41.542969 L 95.839844 41.542969 L 81.417969 26.359375 L 79.316406 28.554688 L 81.648438 31.03125 L 84.070312 33.464844 L 79.984375 33.464844 L 77.753906 35.804688 L 78.230469 36.132812 L 78.765625 35.847656 L 78.910156 35.804688 C 78.945312 35.792969 79.082031 35.792969 79.289062 35.792969 L 86.265625 35.792969 L 91.078125 40.9375 C 91.078125 40.9375 91 41.027344 90.585938 41.027344 L 90.402344 41.027344 "/>
<path style=" stroke:none;fill-rule:nonzero;fill:rgb(68.70575%,51.997375%,13.4552%);fill-opacity:1;" d="M 48.785156 27.109375 L 49.226562 26.8125 L 49.226562 26.371094 L 44.367188 26.371094 L 44.367188 26.8125 L 44.859375 27.117188 L 45.027344 27.328125 L 45.03125 40.503906 L 44.996094 40.671875 L 44.863281 40.773438 L 44.367188 41.089844 L 44.367188 41.539062 L 49.226562 41.539062 L 49.226562 41.097656 L 48.777344 40.78125 L 48.667969 40.710938 L 48.65625 40.714844 L 48.65625 27.351562 L 48.675781 27.207031 L 48.785156 27.109375 "/>
<path style=" stroke:none;fill-rule:nonzero;fill:rgb(68.70575%,51.997375%,13.4552%);fill-opacity:1;" d="M 24.734375 38.605469 L 24.535156 38.605469 L 23.996094 38.617188 L 23.359375 38.988281 C 23.191406 39.089844 23.09375 39.121094 23.074219 39.132812 L 12.203125 39.164062 C 9.714844 39.164062 7.824219 38.832031 6.589844 38.203125 C 4.714844 37.230469 3.800781 35.84375 3.792969 33.960938 C 3.792969 33.117188 4.039062 32.320312 4.527344 31.582031 C 5.457031 30.203125 6.808594 29.257812 8.746094 28.898438 C 9.265625 28.808594 9.757812 28.785156 10.082031 28.785156 L 15.679688 28.785156 C 16.019531 28.769531 15.964844 28.851562 15.972656 28.886719 L 15.914062 29.285156 L 16.378906 29.285156 L 18.78125 26.382812 L 12.085938 26.382812 C 10.539062 26.382812 9.332031 26.429688 8.496094 26.53125 C 8.050781 26.589844 7.636719 26.65625 7.222656 26.757812 C 6.132812 27.003906 5.066406 27.421875 4.050781 27.992188 C 2.414062 28.925781 1.242188 30.101562 0.5625 31.503906 C 0.1875 32.300781 -0.0078125 33.191406 0 34.144531 C -0.0078125 36.597656 1.3125 38.539062 3.914062 39.945312 C 5.085938 40.59375 6.40625 41.039062 7.832031 41.269531 C 8.90625 41.449219 10.378906 41.535156 12.210938 41.535156 L 22.320312 41.535156 L 24.734375 38.605469 "/>
<path style=" stroke:none;fill-rule:nonzero;fill:rgb(68.70575%,51.997375%,13.4552%);fill-opacity:1;" d="M 19.171875 34.972656 L 21.527344 32.027344 L 5.671875 32.027344 L 4.082031 34.410156 L 18.371094 34.410156 C 18.636719 34.441406 18.730469 34.507812 18.742188 34.554688 L 18.683594 34.972656 L 19.171875 34.972656 "/>
<path style=" stroke:none;fill-rule:nonzero;fill:rgb(68.70575%,51.997375%,13.4552%);fill-opacity:1;" d="M 20.40625 26.367188 L 18.191406 29.144531 L 18.644531 29.300781 L 18.710938 29.316406 L 19.390625 28.96875 C 19.585938 28.839844 19.78125 28.78125 19.976562 28.78125 L 28.738281 28.78125 L 28.738281 40.523438 L 28.699219 40.683594 L 28.59375 40.765625 L 28.09375 41.105469 L 28.09375 41.539062 L 32.988281 41.539062 L 32.988281 41.09375 L 32.480469 40.785156 L 32.359375 40.671875 L 32.347656 40.542969 L 32.347656 28.78125 L 40.125 28.78125 C 40.421875 28.816406 40.457031 28.882812 40.457031 28.882812 L 40.457031 29.308594 L 40.894531 29.308594 L 43.308594 26.367188 L 20.40625 26.367188 "/>
</g>
</svg>

<svg xmlns="http://www.w3.org/2000/svg" width="159.507" height="59pt" viewBox="0 0 119.63 59"><defs><clipPath id="a"><path d="M94 26h25.629v16H94Zm0 0"/></clipPath></defs><path d="M35.914 50.14h1.11l3.398 8.657h-1.758L37.977 57h-2.254l-.485-1.234h2.282l-.907-2.38-.242-.75-.238.75-2.04 5.41h-1.616zM42.07 50.14h1.68v8.657h-1.68zM48.93 55.957h-.953v2.84h-1.68V50.14h2.773c2.012 0 3.133.902 3.133 2.761 0 1.336-.625 2.38-1.758 2.828l2.356 3.067h-1.887Zm.14-1.184c1.07 0 1.426-.699 1.426-1.707 0-.98-.355-1.59-1.437-1.59h-1.082v3.297zM53.75 50.14h1.742l1.594 6.16h.066l1.54-4.788-.45-1.371h1.656l2 6.16h.051l1.606-6.16h1.652l-2.621 8.656h-1.414l-1.746-5.36-1.754 5.36h-1.363zM68.793 50.14h1.105l3.399 8.657h-1.758L70.852 57h-2.25l-.485-1.234h2.278l-.903-2.38-.242-.75-.242.75-2.035 5.41h-1.621zM76.004 55.242l-2.824-5.101h1.86l1.882 3.64 1.933-3.64h1.668l-2.84 5.101v3.555h-1.68zM81.703 58.426v-1.754c.395.355 1.234.89 2.254.89 1.121 0 1.566-.433 1.566-1.21 0-.637-.382-.93-1.402-1.172l-.316-.075c-1.414-.343-2.192-1.12-2.192-2.484 0-1.664 1.07-2.684 3.082-2.684 1.211 0 1.922.356 2.215.56v1.757c-.383-.344-1.246-.867-2.277-.867-.992 0-1.403.332-1.403 1.043 0 .625.27.918 1.336 1.172l.32.078c1.528.367 2.266 1.043 2.266 2.445 0 1.691-1.015 2.875-3.246 2.875-1.21 0-1.91-.367-2.203-.574M67.059 3.75l-.149-.125-1.465-1.469-1.593 1.598 1.593 1.61zM70.262 3.75l-.14-.125-1.462-1.469-1.597 1.602 1.597 1.61z" style="stroke:none;fill-rule:nonzero;fill:#af8522;fill-opacity:1"/><path d="M48.477 3.434c.046.351.293.48.535.605.289.149.629.293.629.809v12.207h13.566v.254c-.02.058-.02.16-.02.328 0 .972.34 1.636.95 1.886.011 0 .312.176.754.176.324 0 .656-.101.964-.308l.235-.137-.223-.18c-.394-.297-.531-1.18-.523-1.851v-.168h5.062V5.84s-.683 1.496-3.117 3.262c0 0 .094.48.508.71.633.352.586.68.586.68V15h-3.016v-.453c-.012-1.14-.36-3.785-3.402-3.785l-.153.008c-.94.027-1.761.046-2.476.046h-.176c-1.797 0-2.75-.195-2.98-.629L56.078 10l-.168.117c-.332.215-.527.617-.527 1.11.012.726.406 1.527 1.137 1.582.445.02 1.101.03 1.765.03 1.172 0 2.34-.019 2.34-.019 2.52.02 2.555 1.082 2.582 1.59V15H51.691V.078s-1.355 1.797-3.222 3.168v.074zM40.66 18.762s-.23 1.785 3.5 1.785c3.043 0 3.145-1.89 3.145-1.906l.008-7.012c0-.402-.114-1.703-1.352-1.723H35.37v-.758c0-.175.16-.242.285-.316.617-.383.723-.723.524-.852-1.25-.714-2.477-2.253-2.477-2.253v6.12H44.31l.101-.003c.34.004.774.094.785.773v4.899c0 .035-.015 1.058-1.062 1.058-1.676 0-1.563-.855-1.563-.855l-.008-2.75h-8.859v2.09h6.957zM84.805 4.754c.023-.52.297-.664.578-.816.25-.126.496-.258.539-.618l.008-.168c0-.199-.145-.261-.332-.343-.184-.086-.535-.301-1.184-.852C83.332 1.02 83.062.586 83.062.586L82.693 0v17.059h2.113s-.032-11.922 0-12.305M72.738 19.262l3.469 3.472 3.457-3.472-2.148-2.149 2.586-2.734V.008s-.961 2.191-2.653 3.285v.121c.035.328.235.457.43.582.23.156.45.293.469.824.023.403 0 8.664 0 8.664l-2.141 2.23-2.152-2.23c0-.132-.028-8.285 0-8.664.023-.53.242-.675.472-.824.18-.125.387-.254.422-.594l.004-.16C73.422 2.16 72.293.008 72.293.008v14.566l2.586 2.543Zm4.899 0-1.43 1.449-1.45-1.45 1.45-1.44zM66.621 26.809l.512.32c.14.09.156.148.156.2v4.452h-9.816l-2.215 2.813v-7.246l.015-.141.114-.078.46-.29.051-.026v-.446h-4.902v.442l.488.312.106.074h.012v13.313l-.024.18-.094.085-.488.329v.43h4.902v-.442l-.511-.32-.114-.07-.015.007v-6.113l.523.16.684-.39.305-.145a1 1 0 0 1 .277-.032H67.27v4.684l3.656-3.918v-7.758l.07-.113.535-.266v-.449h-4.91z" style="stroke:none;fill-rule:nonzero;fill:#af8522;fill-opacity:1"/><g clip-path="url(#a)"><path d="M119.355 32.297c-.57-1.817-1.886-3.305-3.91-4.434-1.824-1.02-4.402-1.515-7.89-1.515H94.227v.437l.574.371h.004v1.578h12.726c2.574 0 4.45.344 5.602 1.012 1.816 1.059 2.707 2.442 2.707 4.211 0 .887-.242 1.7-.707 2.422-.469.707-1.184 1.32-2.13 1.8-1.218.641-3.105.962-5.577.962h-6.637v-9.32h-3.633l.008 10.702-.023.157-.098.101-.45.278-.034.03v.438h10.879c2.093 0 3.738-.12 4.894-.359 1.578-.328 2.984-.902 4.164-1.707 1.211-.813 2.082-1.75 2.57-2.8.38-.763.563-1.61.563-2.509 0-.64-.09-1.265-.274-1.855" style="stroke:none;fill-rule:nonzero;fill:#af8522;fill-opacity:1"/></g><path d="M78.336 29.145 66.512 41.492h5.445v-.515h-.184l-.261-.024-.2-.058 9.133-9.504z" style="stroke:none;fill-rule:nonzero;fill:#af8522;fill-opacity:1"/><path d="M90.402 41.027v.516h5.438L81.418 26.359l-2.102 2.196 2.332 2.476 2.422 2.434h-4.086l-2.23 2.34.476.328.536-.285.144-.043c.035-.012.172-.012.38-.012h6.976l4.812 5.145s-.078.09-.492.09zM48.785 27.11l.442-.297v-.442h-4.86v.442l.492.304.168.211.004 13.176-.035.168-.133.101-.496.317v.45h4.86v-.442l-.45-.317-.109-.07-.012.004V27.352l.02-.145zM24.734 38.605h-.199l-.539.012-.637.371c-.168.102-.265.133-.285.145l-10.87.031c-2.49 0-4.38-.332-5.614-.96-1.875-.974-2.79-2.36-2.797-4.243 0-.844.246-1.64.734-2.379.93-1.379 2.282-2.324 4.22-2.684a8 8 0 0 1 1.335-.113h5.598c.34-.015.285.067.293.102l-.059.398h.465l2.402-2.902h-6.695c-1.547 0-2.754.047-3.59.148-.445.059-.86.125-1.273.227-1.09.246-2.157.664-3.172 1.234-1.637.934-2.809 2.11-3.488 3.512A6.04 6.04 0 0 0 0 34.144c-.008 2.454 1.313 4.395 3.914 5.801 1.172.649 2.492 1.094 3.918 1.325 1.074.18 2.547.265 4.379.265h10.11z" style="stroke:none;fill-rule:nonzero;fill:#af8522;fill-opacity:1"/><path d="m19.172 34.973 2.355-2.946H5.672l-1.59 2.383h14.29c.265.031.358.098.37.145l-.058.418z" style="stroke:none;fill-rule:nonzero;fill:#af8522;fill-opacity:1"/><path d="m20.406 26.367-2.215 2.778.454.156.066.015.68-.347c.195-.13.39-.188.586-.188h8.761v11.742l-.039.16-.105.083-.5.34v.433h4.894v-.445l-.508-.309-.12-.113-.012-.129V28.781h7.777c.297.035.332.102.332.102v.426h.438l2.414-2.942z" style="stroke:none;fill-rule:nonzero;fill:#af8522;fill-opacity:1"/></svg>
